X:85
L:1/8
M:6/8
K:A
 E | ABA a2 f | ecA B2 A | FBB Bcd | cBA F2 E | ABA a2 f | ecA cde | fga ece | dcB A2 :| e |: 
 f2 f e2 c | a2 a g2 e | aba g2 e | f3 e2 e | f2 f e2 c | a2 a g2 e | a2 a g2 f |1 efc cde :|2 
 efc cdB ||

